svg/u267f.svg

<svg viewBox="0 0 128 128" xmlns="http://www.w3.org/2000/svg">
  <g>
    <path d="M116.46,3.96h-104c-4.42,0-8,3.58-8,8v104c0,4.42,3.58,8,8,8h104c4.42,0,8-3.58,8-8v-104 C124.46,7.54,120.88,3.96,116.46,3.96z" fill="#194FA5"/>
    <path d="M110.16,3.96h-98.2c-4.13,0.03-7.47,3.37-7.5,7.5v97.9c-0.01,4.14,3.34,7.49,7.48,7.5 c0.01,0,0.01,0,0.02,0h98.1c4.14,0.01,7.49-3.34,7.5-7.48c0-0.01,0-0.01,0-0.02v-97.9c0.09-4.05-3.13-7.41-7.18-7.5 C110.31,3.96,110.23,3.96,110.16,3.96z" fill="#2262DD"/>
    <path d="M40.16,12.86c0-2.3-1.6-3-10.8-2.7c-7.7,0.3-11.5,1.2-13.8,4s-2.9,8.5-3,15.3c0,4.8,0,9.3,2.5,9.3 c3.4,0,3.4-7.9,6.2-12.3C26.66,17.76,40.16,15.86,40.16,12.86z" fill="#68ABE6"/>
    <g>
      <g>
        <path d="M97.27,58.38c-1.14-1.17-2.73-1.78-4.35-1.69l-19.66,1.09l10.82-12.33 c1.53-1.76,1.98-4.1,1.39-6.19c-0.31-1.43-1.17-2.73-2.52-3.57c-0.04-0.03-25.87-15.03-25.87-15.03 c-2.12-1.23-4.76-0.95-6.58,0.67L37.88,32.59c-2.32,2.07-2.53,5.64-0.46,7.96s5.64,2.53,7.96,0.46l9.57-8.53l7.91,4.59 L48.9,52.95c-5.79,0.94-11,3.61-15.08,7.45l7.29,7.29c3.29-2.99,7.67-4.82,12.46-4.82c10.22,0,18.54,8.32,18.54,18.54 c0,4.79-1.83,9.16-4.82,12.46l7.29,7.29c4.86-5.16,7.84-12.11,7.84-19.75c0-4.56-1.06-8.87-2.93-12.7l7.61-0.42l-1.85,22.72 c-0.25,3.1,2.05,5.83,5.16,6.07c0.15,0.01,0.31,0.02,0.47,0.02c2.91,0,5.38-2.23,5.61-5.17l2.38-29.16 C98.98,61.15,98.41,59.54,97.27,58.38L97.27,58.38z" fill="#FAFAFA"/>
        <path d="M53.57,99.97c-10.22,0-18.54-8.32-18.54-18.54c0-3.86,1.17-7.43,3.2-10.4l-7.37-7.37 c-3.84,4.9-6.13,11.07-6.13,17.77c0,15.93,12.91,28.85,28.85,28.85c6.71,0,12.88-2.3,17.77-6.13l-7.37-7.37 C61.01,98.78,57.42,99.97,53.57,99.97z" fill="#FAFAFA"/>
      </g>
      <path d="M89.16,34.09c6.47,1.06,11.97-4.46,10.9-10.91c-0.65-3.92-3.8-7.07-7.7-7.7 c-6.47-1.06-11.97,4.46-10.9,10.91C82.1,30.29,85.25,33.44,89.16,34.09z" fill="#FAFAFA"/>
    </g>
  </g>
</svg>

<svg viewBox="0 0 128 128" xmlns="http://www.w3.org/2000/svg">
  <defs/>
  <path d="M116.46,3.96 L12.46,3.96 C8.04,3.96 4.46,7.54 4.46,11.96 L4.46,115.96 C4.46,120.38 8.04,123.96 12.46,123.96 L116.46,123.96 C120.88,123.96 124.46,120.38 124.46,115.96 L124.46,11.96 C124.46,7.54 120.88,3.96 116.46,3.96 Z" fill="#194FA5"/>
  <path d="M110.16,3.96 L11.96,3.96 C7.83,3.99 4.49,7.33 4.46,11.46 L4.46,109.36 C4.45,113.5 7.8,116.85 11.94,116.86 C11.95,116.86 11.95,116.86 11.96,116.86 L110.06,116.86 C114.2,116.87 117.55,113.52 117.56,109.38 C117.56,109.37 117.56,109.37 117.56,109.36 L117.56,11.46 C117.65,7.41 114.43,4.05 110.38,3.96 C110.31,3.96 110.23,3.96 110.16,3.96 Z" fill="#2262DD"/>
  <path d="M40.16,12.86 C40.16,10.56 38.56,9.86 29.36,10.16 C21.66,10.46 17.86,11.36 15.56,14.16 C13.26,16.96 12.66,22.66 12.56,29.46 C12.56,34.26 12.56,38.76 15.06,38.76 C18.46,38.76 18.46,30.86 21.26,26.46 C26.66,17.76 40.16,15.86 40.16,12.86 Z" fill="#68ABE6"/>
  <path d="M97.27,58.38 C96.13,57.21 94.54,56.6 92.92,56.69 L73.26,57.78 L84.08,45.45 C85.61,43.69 86.06,41.35 85.47,39.26 C85.16,37.83 84.3,36.53 82.95,35.69 C82.91,35.66 57.08,20.66 57.08,20.66 C54.96,19.43 52.32,19.71 50.5,21.33 L37.88,32.59 C35.56,34.66 35.35,38.23 37.42,40.55 C39.49,42.87 43.06,43.08 45.38,41.01 L54.95,32.48 L62.86,37.07 L48.9,52.95 C43.11,53.89 37.9,56.56 33.82,60.4 L41.11,67.69 C44.4,64.7 48.78,62.87 53.57,62.87 C63.79,62.87 72.11,71.19 72.11,81.41 C72.11,86.2 70.28,90.57 67.29,93.87 L74.58,101.16 C79.44,96 82.42,89.05 82.42,81.41 C82.42,76.85 81.36,72.54 79.49,68.71 L87.1,68.29 L85.25,91.01 C85,94.11 87.3,96.84 90.41,97.08 C90.56,97.09 90.72,97.1 90.88,97.1 C93.79,97.1 96.26,94.87 96.49,91.93 L98.87,62.77 C98.98,61.15 98.41,59.54 97.27,58.38 L97.27,58.38 Z" fill="#FAFAFA"/>
  <path d="M53.57,99.97 C43.35,99.97 35.03,91.65 35.03,81.43 C35.03,77.57 36.2,74 38.23,71.03 L30.86,63.66 C27.02,68.56 24.73,74.73 24.73,81.43 C24.73,97.36 37.64,110.28 53.58,110.28 C60.29,110.28 66.46,107.98 71.35,104.15 L63.98,96.78 C61.01,98.78 57.42,99.97 53.57,99.97 Z" fill="#FAFAFA"/>
  <path d="M89.16,34.09 C95.63,35.15 101.13,29.63 100.06,23.18 C99.41,19.26 96.26,16.11 92.36,15.48 C85.89,14.42 80.39,19.94 81.46,26.39 C82.1,30.29 85.25,33.44 89.16,34.09 Z" fill="#FAFAFA"/>
</svg>
